libs/ui/packages/crypto-icons/src/svg/BLZ.svg

<svg width="24" height="24" viewBox="0 0 24 24" fill="none">
<path d="M8.72475 15.252C9.22125 15.7583 9.22125 16.5788 8.72475 17.085C8.22825 17.5913 7.42275 17.5928 6.92475 17.0873C6.68475 16.8443 6.54975 16.5135 6.54975 16.1685C6.54975 15.8235 6.68475 15.4935 6.92475 15.2498C7.04201 15.1298 7.18209 15.0345 7.33674 14.9695C7.49139 14.9046 7.65748 14.8712 7.82522 14.8714C7.99297 14.8716 8.15898 14.9054 8.31347 14.9708C8.46795 15.0361 8.6078 15.1317 8.72475 15.252ZM17.022 6.5445C17.2564 6.64503 17.4559 6.8124 17.5957 7.02569C17.7355 7.23898 17.8093 7.48873 17.808 7.74375C17.808 8.26875 17.4975 8.74125 17.022 8.94225C16.5465 9.14325 15.9983 9.03225 15.6345 8.661C15.3947 8.41598 15.2605 8.08662 15.261 7.74375C15.261 7.39875 15.3953 7.06875 15.6345 6.8265C15.8107 6.64559 16.0373 6.52198 16.2849 6.47181C16.5324 6.42164 16.7893 6.44723 17.022 6.54525V6.5445ZM8.5575 14.2523L9.78525 12.9952C9.90546 13.3031 10.0868 13.5835 10.3183 13.8194C10.5498 14.0552 10.8267 14.2418 11.1323 14.3678L9.9015 15.621L8.5575 14.2523ZM15.8302 9.6495L14.5995 10.9035C14.4801 10.5955 14.2989 10.3153 14.067 10.08C13.8366 9.84502 13.5608 9.65949 13.2562 9.53475L14.4862 8.28075L15.8302 9.6495ZM15.315 15.606C15.4092 15.3706 15.5715 15.1687 15.7812 15.0262C15.9908 14.8836 16.2382 14.8069 16.4918 14.8057C17.007 14.8057 17.4713 15.1215 17.6685 15.606C17.865 16.0913 17.7563 16.6485 17.3925 17.0198C17.2753 17.1401 17.1353 17.2358 16.9806 17.3012C16.8259 17.3666 16.6597 17.4005 16.4918 17.4008C16.3239 17.4004 16.1579 17.3665 16.0033 17.3011C15.8488 17.2356 15.7088 17.14 15.5917 17.0198C15.413 16.8366 15.2917 16.6053 15.2425 16.3542C15.1934 16.103 15.2185 15.843 15.315 15.606ZM6.77625 7.1325C6.87034 6.89699 7.03261 6.69494 7.24226 6.55223C7.45191 6.40953 7.69939 6.33267 7.953 6.3315C8.46825 6.3315 8.9325 6.64725 9.12975 7.1325C9.32625 7.617 9.2175 8.175 8.85375 8.54625C8.73652 8.66645 8.59645 8.76201 8.44176 8.82731C8.28708 8.89261 8.1209 8.92633 7.953 8.9265C7.78522 8.92623 7.61919 8.89246 7.46464 8.82716C7.3101 8.76186 7.17014 8.66636 7.053 8.54625C6.8743 8.3631 6.75292 8.13178 6.70376 7.88065C6.6546 7.62953 6.6798 7.36952 6.77625 7.1325ZM14.385 15.5655L13.1512 14.3153C13.4568 14.1893 13.7337 14.0027 13.9652 13.7669C14.1967 13.531 14.378 13.2506 14.4982 12.9427L15.7283 14.1968L14.385 15.5655ZM10.0042 8.208L11.2343 9.46275C10.9305 9.58589 10.6555 9.7705 10.4265 10.005C10.1955 10.2405 10.0132 10.5225 9.891 10.8315L8.661 9.5775L10.0042 8.208ZM12.2108 7.09725C11.5065 7.09725 10.9358 6.516 10.9358 5.79825C10.9358 5.0805 11.5065 4.5 12.2108 4.5C12.5483 4.5 12.873 4.6365 13.1122 4.88025C13.3515 5.124 13.4857 5.454 13.485 5.79825C13.485 6.516 12.915 7.09725 12.21 7.09725H12.2108ZM13.4858 18.2017C13.4858 18.9187 12.9143 19.5 12.2108 19.5C11.5073 19.5 10.9358 18.9187 10.9358 18.2017C10.9358 17.4847 11.5065 16.9028 12.2108 16.9028C12.5483 16.9028 12.873 17.0393 13.1122 17.283C13.3515 17.5268 13.4857 17.8567 13.485 18.2017H13.4858ZM12.6735 7.77675V9.38475C12.4081 9.33785 12.1364 9.33785 11.871 9.38475V7.77675H12.6735ZM12.6735 14.6857V16.2945H11.871V14.685C12.1365 14.7323 12.408 14.7323 12.6735 14.685V14.6857ZM16.6725 12.1417C16.5759 11.9045 16.5507 11.6442 16.5998 11.3929C16.649 11.1415 16.7704 10.9099 16.9493 10.7265C17.1256 10.5453 17.3525 10.4215 17.6002 10.3712C17.848 10.3209 18.1052 10.3465 18.3383 10.4445C18.8145 10.6455 19.125 11.1195 19.125 11.6445C19.125 11.9895 18.9908 12.3195 18.7523 12.5632C18.6049 12.7145 18.422 12.8263 18.2203 12.8885C18.0185 12.9508 17.8044 12.9614 17.5975 12.9195C17.3906 12.8775 17.1975 12.7844 17.0359 12.6485C16.8743 12.5126 16.7493 12.3384 16.6725 12.1417ZM4.875 11.865C4.875 11.148 5.445 10.5667 6.15 10.5667C6.8535 10.5667 7.42425 11.1473 7.425 11.8643C7.425 12.2092 7.29 12.5393 7.0515 12.783C6.9341 12.9032 6.79389 12.9987 6.63909 13.064C6.48429 13.1293 6.31801 13.1631 6.15 13.1632C5.44575 13.1632 4.875 12.582 4.875 11.8658V11.865ZM16.1873 12.2737L14.6093 12.2723C14.6553 12.0017 14.6553 11.7253 14.6093 11.4548H16.1873V12.2737ZM9.705 12.2737H8.12625V11.4562H9.705C9.65898 11.7268 9.65898 12.0032 9.705 12.2737ZM12.1725 13.8015C11.1742 13.8015 10.365 12.9773 10.365 11.961C10.365 10.9447 11.1742 10.1198 12.1725 10.1198C13.17 10.1198 13.9792 10.9447 13.98 11.961C13.98 12.9773 13.17 13.8015 12.1725 13.8015Z" fill="#18578C"/>
</svg>

<svg width="24" height="24" viewBox="0 0 24 24" fill="none"><path fill="#18578c" d="M8.725 15.252a1.314 1.314 0 0 1 0 1.833 1.257 1.257 0 0 1-1.8.002 1.31 1.31 0 0 1 0-1.837 1.257 1.257 0 0 1 1.8.002m8.297-8.707a1.3 1.3 0 0 1 .786 1.199c0 .525-.31.997-.786 1.198a1.255 1.255 0 0 1-1.387-.281 1.31 1.31 0 0 1 0-1.834 1.26 1.26 0 0 1 1.387-.282m-8.464 7.707 1.227-1.257a2.45 2.45 0 0 0 1.347 1.373l-1.23 1.253zM15.83 9.65l-1.23 1.255a2.4 2.4 0 0 0-.533-.824 2.4 2.4 0 0 0-.81-.545l1.23-1.254zm-.515 5.957a1.27 1.27 0 0 1 1.177-.8c.515 0 .98.316 1.177.8a1.32 1.32 0 0 1-.277 1.414 1.26 1.26 0 0 1-1.389.281 1.3 1.3 0 0 1-.411-.281 1.32 1.32 0 0 1-.277-1.414M6.776 7.133a1.27 1.27 0 0 1 1.177-.801c.515 0 .98.315 1.177.8a1.32 1.32 0 0 1-.276 1.414 1.26 1.26 0 0 1-1.801 0 1.32 1.32 0 0 1-.277-1.413m7.609 8.433-1.234-1.25a2.45 2.45 0 0 0 1.347-1.373l1.23 1.254zm-4.38-7.358 1.23 1.255a2.4 2.4 0 0 0-.808.542 2.5 2.5 0 0 0-.536.826l-1.23-1.253zm2.206-1.11a1.287 1.287 0 0 1-1.275-1.3c0-.718.57-1.298 1.275-1.298.337 0 .662.136.901.38.24.244.374.574.373.918 0 .718-.57 1.3-1.275 1.3m1.275 11.104c0 .717-.572 1.298-1.275 1.298a1.287 1.287 0 0 1-1.275-1.298c0-.717.57-1.3 1.275-1.3.337 0 .662.137.901.381.24.244.374.574.373.919m-.812-10.425v1.608a2.3 2.3 0 0 0-.803 0V7.777zm0 6.909v1.608h-.803v-1.609c.265.047.537.047.803 0m3.999-2.544a1.32 1.32 0 0 1 .276-1.415 1.26 1.26 0 0 1 1.39-.283 1.313 1.313 0 0 1 .414 2.119 1.262 1.262 0 0 1-2.08-.421m-11.798-.277c0-.717.57-1.298 1.275-1.298.704 0 1.274.58 1.275 1.297 0 .345-.135.675-.373.919a1.26 1.26 0 0 1-.902.38 1.287 1.287 0 0 1-1.275-1.297zm11.312.409-1.578-.002c.046-.27.046-.547 0-.817h1.578zm-6.482 0H8.126v-.818h1.579c-.046.27-.046.547 0 .818m2.467 1.528c-.998 0-1.807-.825-1.807-1.841s.81-1.841 1.807-1.841c.998 0 1.807.825 1.808 1.841 0 1.016-.81 1.84-1.808 1.84"/></svg>
